app/dist/common/images/falcon-metals-ltd.svg

<svg height="18" viewBox="0 0 18 18" width="18" xmlns="http://www.w3.org/2000/svg"><path d="m0 0h18v18h-18z" fill="#f0f3fa"/><path d="m4.1 6h-1.1l3.43 3.5.57-.56zm1.94 0h-1.04l2.47 2.33.53-.49z" fill="#c22b28"/><path d="m12.47 10.42-2.29 2.58-1.65-2h-1.79c-.18 0-.32.45-.32.58-.16-.1-.42-.32-.42-.55 0-.2.17-.4.25-.48l4.6-4.55h4.15l-.74.7h-3.09l-2.64 2.8.18.22 2.55-2.55h2.62l-.75.7h-1.6l-2.14 2.33.18.22 2.06-2.09h1.13l-1.97 2.09h1.69z" fill="#071b39"/></svg>

<!-- by TradingView --><svg width="18" height="18" viewBox="0 0 18 18" xmlns="http://www.w3.org/2000/svg"><path fill="#F0F3FA" d="M0 0h18v18H0z"/><path d="M4.1 6H3l3.43 3.5.57-.56L4.1 6Zm1.94 0H5l2.47 2.33.53-.49L6.04 6Z" fill="#C22B28"/><path d="M12.47 10.42 10.18 13l-1.65-2H6.74c-.18 0-.32.45-.32.58-.16-.1-.42-.32-.42-.55 0-.2.17-.4.25-.48L10.85 6H15l-.74.7h-3.09L8.53 9.5l.18.22 2.55-2.55h2.62l-.75.7h-1.6L9.39 10.2l.18.22 2.06-2.09h1.13l-1.97 2.09h1.69Z" fill="#071B39"/></svg>
